X: 11331
T: Eamon Coyne's
R: reel
M: 4/4
K: Gmajor
|:BcdB ~G3 B|ADFA dBcA|BcdB ~G3 B|ADFA G3A:|
BGBd gfed|cBce agfe|fgaf d^cdf|eAB/^c/e d2ef|
gfed ^cdef|~g3 e fgdc|BcdB ~G3 B|ADFA G3 A|

